X: 1
T: Bryllupsg\aarden
O: Sweden, Norway
R: hambo-polska
Z: 2009 John Chambers <jc:trillian.mit.edu>
S: handwritten notes from the 1970s
M: 3/4
L: 1/8
K: D
|: "D"F2 FA D>F | "G"G2 GB E>d | "A7"c2 ce A>c |1,3 "D"d2 df A>G :|2,4 "D"d2 d4 :|
|: "D"f2 fd d>B | "D"A2 AF F>A | "A7"G2 GE E>G |1,3 "D"F2 FD D>d :|2,4 "D"D2 D4 :|
